X: 13739
T: Forest Wedding
R: jig
M: 6/8
K: Dminor
|:D3 D2E|FED DEF|G3 G2A|BAG GAB|A3 A2c|
e3 e2e|1 dfe dcB|AGF ED^C:|2 d2f ed^c|d3 d2e||
|:f3 f2g|fed d2A|B3 B2c|BAG G2c|
[1 e3 e2f|g3 g2e|fed edc|dcB cde:|
[2 e3 e2d|^c3 ^cde|d2f ed^c|d3 d3||

